X:231
T:Female Rake,The. RH.231
R:jig
S:Rev.R.Harrison’s MS,c1815,Cumbria
O:England
A:Temple Sowerby,Cumbria
Z:vmp.Simon Wilson. Review PJH, 2008.
M:6/8
L:1/8
Q:3/8=120
K:D
ded dAF|GEA FDE|FGA Bcd|efd c2A|!
ded dAF|GEA FDE|FGA Bcd|ecA d3:|!
|:efd ecA|fdB ecA|e2f gfe|dcB A2f|!
GFG g2G|FEF f2f|EFG AFD|ecA d3:|

